X:15
T:Humours of Whiskey
Z: id:dc-slipjig-15
M:9/8
L:1/8
K:B Minor
gfe fBB fBB|gfe fBB fga|gfe fBB fBB|agf efd cBA:|!
d2e fdf ecA|d2e fed gfe|d2e fdf efg|agf efd cBA:|!

